X: 4
T: Fairy Queen, The
C: Turlough O'Carolan
Z: luddite
S: https://thesession.org/tunes/243#setting41763
R: waltz
M: 3/4
L: 1/8
K: Dmaj
d2 d2 BA|d4 BA|d2 d2 BA|d2 {f}e2 f2|d2 d2 AB|F4 dc|B4 dc|d3 g f/g/f/e/|
d3 f e/f/e/d/|c3 f e/f/e/d/|B3 c BA|F3 g fe|{A}B3 d cB|A2 B2 dc|d6|D4 de|
~f4 f2|fefgfg|{f}e4 e2|e2 f2 a2|d4 a2|c4 ac|B3 c B/c/B/A/|F3 A Bc|
d3 G F/G/F/E/|D3 d cd|e3 d c/d/c/B/|A3 g fd|B3 d c/d/c/B/|A2 B2 dc|d6|D4 Bc|
d2 d2 A2|d3 c B/c/B/A/|F3 G FE|D4 Bc|dcdedc|BABcdB|e3 d c/d/c/B/|A4 de|
f2 f2 B2|fefgfB|{cd}e3 d c/d/c/B/|A4 f2|BcBcde|A2 B2 dc|dBAGFE|D4 d'c'|
~b4 ba|f2 f2 f/g/f/e/|d4 de|~c4 dc|B2 F2 ^A2|B4 Bc|defgfe|f4 FA|
BcBc B/c/d/B/|d3 Dcd|efed c/d/c/B/|A3 fef|BcBcde|A2 B2 dc|{c}d6|d4 fa|
babc' b/c'/b/a/|fefg f/g/f/e/|dede d/f/e/d/|cBcd c/d/e/c/|BABc B/c/B/A/|BABFBc|d2 e2fe|
fefafA|BcBcBc|dcdDcd|efed c/d/c/B/|A3 fef|BcBcde|A2 B2 dc|d6|D6||

